humanity-icon-theme/Humanity/actions/64/gtk-info.svg

<?xml version="1.0" encoding="UTF-8" standalone="no"?>
<!-- Created with Inkscape (http://www.inkscape.org/) -->
<svg
   xmlns:svg="http://www.w3.org/2000/svg"
   xmlns="http://www.w3.org/2000/svg"
   xmlns:xlink="http://www.w3.org/1999/xlink"
   version="1.0"
   width="64"
   height="64"
   id="svg3229">
  <defs
     id="defs3231">
    <linearGradient
       id="linearGradient8838">
      <stop
         id="stop8840"
         style="stop-color:#000000;stop-opacity:1"
         offset="0" />
      <stop
         id="stop8842"
         style="stop-color:#000000;stop-opacity:0"
         offset="1" />
    </linearGradient>
    <radialGradient
       cx="62.625"
       cy="4.625"
       r="10.625"
       fx="62.625"
       fy="4.625"
       id="radialGradient3223"
       xlink:href="#linearGradient8838"
       gradientUnits="userSpaceOnUse"
       gradientTransform="matrix(2.9176471,0,0,0.988234,-150.71765,48.92941)" />
    <linearGradient
       id="linearGradient2490-182-124">
      <stop
         id="stop2788"
         style="stop-color:#1f4b6a;stop-opacity:1"
         offset="0" />
      <stop
         id="stop2790"
         style="stop-color:#4083c2;stop-opacity:1"
         offset="1" />
    </linearGradient>
    <linearGradient
       x1="18.379412"
       y1="44.980297"
       x2="18.379412"
       y2="3.0816143"
       id="linearGradient3220"
       xlink:href="#linearGradient2490-182-124"
       gradientUnits="userSpaceOnUse"
       gradientTransform="matrix(1.2533672,0,0,1.2533674,1.919184,3.9191687)" />
    <linearGradient
       id="linearGradient3242-187-536">
      <stop
         id="stop2778"
         style="stop-color:#8badea;stop-opacity:1"
         offset="0" />
      <stop
         id="stop2780"
         style="stop-color:#6396cd;stop-opacity:1"
         offset="0.26238" />
      <stop
         id="stop2782"
         style="stop-color:#3b7caf;stop-opacity:1"
         offset="0.66093999" />
      <stop
         id="stop2784"
         style="stop-color:#194c70;stop-opacity:1"
         offset="1" />
    </linearGradient>
    <radialGradient
       cx="23.895569"
       cy="3.9900031"
       r="20.397499"
       fx="23.895569"
       fy="3.9900031"
       id="radialGradient3218"
       xlink:href="#linearGradient3242-187-536"
       gradientUnits="userSpaceOnUse"
       gradientTransform="matrix(0,2.9913581,-3.9485396,0,47.754682,-64.903143)" />
    <linearGradient
       id="linearGradient4873">
      <stop
         id="stop4875"
         style="stop-color:#ffffff;stop-opacity:1"
         offset="0" />
      <stop
         id="stop4877"
         style="stop-color:#ffffff;stop-opacity:0"
         offset="1" />
    </linearGradient>
    <linearGradient
       x1="63.397362"
       y1="-12.489107"
       x2="63.397362"
       y2="5.4675598"
       id="linearGradient3215"
       xlink:href="#linearGradient4873"
       gradientUnits="userSpaceOnUse"
       gradientTransform="matrix(2.8014404,0,0,2.8013767,-142.25072,43.835172)" />
  </defs>
  <g
     id="layer1">
    <path
       d="M 63,53.499998 C 63,59.298988 49.120825,63.999998 32,63.999998 C 14.879175,63.999998 1,59.298988 1,53.499998 C 1,47.701008 14.879175,42.999998 32,42.999998 C 49.120825,42.999998 63,47.701008 63,53.499998 L 63,53.499998 z"
       id="path8836"
       style="opacity:0.3;fill:url(#radialGradient3223);fill-opacity:1;fill-rule:evenodd;stroke:none;stroke-width:0.99999988;stroke-linecap:butt;stroke-linejoin:round;marker:none;marker-start:none;marker-mid:none;marker-end:none;stroke-miterlimit:4;stroke-dasharray:none;stroke-dashoffset:0;stroke-opacity:1;visibility:visible;display:inline;overflow:visible" />
    <path
       d="M 32.000001,8.501793 C 17.93098,8.501793 6.5018092,19.930961 6.5018092,33.999983 C 6.5018092,48.069004 17.93098,59.498177 32.000001,59.498173 C 46.069017,59.498173 57.498201,48.069004 57.498188,33.999983 C 57.498188,19.930961 46.069017,8.501793 32.000001,8.501793 z"
       id="path2555"
       style="fill:url(#radialGradient3218);fill-opacity:1;stroke:url(#linearGradient3220);stroke-width:1;stroke-linecap:round;stroke-linejoin:round;stroke-miterlimit:4;stroke-dasharray:none;stroke-dashoffset:0;stroke-opacity:1" />
    <path
       d="M 56.499998,33.999131 C 56.499998,47.530543 45.530168,58.499998 32.000309,58.499998 C 18.469211,58.499998 7.4999998,47.530419 7.4999998,33.999131 C 7.4999998,20.468344 18.469211,9.5000007 32.000309,9.5000007 C 45.530168,9.5000007 56.499998,20.468344 56.499998,33.999131 L 56.499998,33.999131 z"
       id="path8655"
       style="opacity:0.4;fill:none;fill-opacity:1;fill-rule:nonzero;stroke:url(#linearGradient3215);stroke-width:0.99999994;stroke-miterlimit:4;stroke-dasharray:none;stroke-opacity:1" />
    <path
       d="M 24,33.128279 C 24.333093,34.037984 24.708013,34.77537 25.506631,33.767096 C 26.496742,33.17527 29.81423,30.581114 29.482275,33.122147 C 28.420016,37.824179 27.127013,42.476763 26.138364,47.193277 C 25.104593,49.775782 27.452086,52.111768 29.903042,50.432351 C 32.508248,49.353391 34.750022,47.59595 37.040246,45.983763 C 36.727761,45.213849 36.519484,44.107876 35.656054,45.114746 C 34.522326,45.63172 32.04614,48.069066 31.586109,46.058802 C 32.53843,40.967353 34.302867,36.064378 35.430725,31.013523 C 36.468646,28.691152 34.773516,25.756752 32.236099,27.677847 C 29.19621,29.007968 26.654065,31.180774 24,33.128279 z M 35.28201,16.003989 C 32.180423,15.838626 30.558806,20.861694 33.506224,22.23623 C 35.897442,23.221447 38.50105,20.757555 37.916885,18.295561 C 37.735598,17.01358 36.589945,15.960865 35.282011,16.003989 L 35.28201,16.003989 z"
       id="path3227"
       style="font-size:40px;font-style:normal;font-variant:normal;font-weight:bold;font-stretch:normal;text-align:start;line-height:100%;writing-mode:lr-tb;text-anchor:start;fill:#1f4b6b;fill-opacity:1;stroke:none;stroke-width:1px;stroke-linecap:butt;stroke-linejoin:miter;stroke-opacity:1;font-family:URW Palladio L;-inkscape-font-specification:URW Palladio L Bold" />
    <path
       d="M 24,34.128279 C 24.333093,35.037984 24.708013,35.77537 25.506631,34.767096 C 26.496742,34.17527 29.81423,31.581114 29.482275,34.122147 C 28.420016,38.824179 27.127013,43.476763 26.138364,48.193277 C 25.104593,50.775782 27.452086,53.111768 29.903042,51.432351 C 32.508248,50.353391 34.750022,48.59595 37.040246,46.983763 C 36.727761,46.213849 36.519484,45.107876 35.656054,46.114746 C 34.522326,46.63172 32.04614,49.069066 31.586109,47.058802 C 32.53843,41.967353 34.302867,37.064378 35.430725,32.013523 C 36.468646,29.691152 34.773516,26.756752 32.236099,28.677847 C 29.19621,30.007968 26.654065,32.180774 24,34.128279 z M 35.28201,17.003989 C 32.180423,16.838626 30.558806,21.861694 33.506224,23.23623 C 35.897442,24.221447 38.50105,21.757555 37.916885,19.295561 C 37.735598,18.01358 36.589945,16.960865 35.282011,17.003989 L 35.28201,17.003989 z"
       id="path3536"
       style="font-size:40px;font-style:normal;font-variant:normal;font-weight:bold;font-stretch:normal;text-align:start;line-height:100%;writing-mode:lr-tb;text-anchor:start;fill:#ffffff;fill-opacity:1;stroke:none;stroke-width:1px;stroke-linecap:butt;stroke-linejoin:miter;stroke-opacity:1;font-family:URW Palladio L;-inkscape-font-specification:URW Palladio L Bold" />
  </g>
</svg>

<?xml version="1.0" encoding="UTF-8" standalone="no"?>
<!-- Created with Inkscape (http://www.inkscape.org/) -->
<svg id="svg3229" xmlns="http://www.w3.org/2000/svg" height="64" width="64" version="1.0" xmlns:xlink="http://www.w3.org/1999/xlink">
 <defs id="defs3231">
  <radialGradient id="radialGradient3223" gradientUnits="userSpaceOnUse" cy="4.625" cx="62.625" gradientTransform="matrix(2.9176 0 0 .98823 -150.72 48.929)" r="10.625">
   <stop id="stop8840" offset="0"/>
   <stop id="stop8842" style="stop-opacity:0" offset="1"/>
  </radialGradient>
  <linearGradient id="linearGradient3220" y2="3.0816" gradientUnits="userSpaceOnUse" x2="18.379" gradientTransform="matrix(1.2534 0 0 1.2534 1.9192 3.9192)" y1="44.98" x1="18.379">
   <stop id="stop2788" style="stop-color:#1f4b6a" offset="0"/>
   <stop id="stop2790" style="stop-color:#4083c2" offset="1"/>
  </linearGradient>
  <radialGradient id="radialGradient3218" gradientUnits="userSpaceOnUse" cy="3.99" cx="23.896" gradientTransform="matrix(0 2.9914 -3.9485 0 47.755 -64.903)" r="20.397">
   <stop id="stop2778" style="stop-color:#8badea" offset="0"/>
   <stop id="stop2780" style="stop-color:#6396cd" offset=".26238"/>
   <stop id="stop2782" style="stop-color:#3b7caf" offset=".66094"/>
   <stop id="stop2784" style="stop-color:#194c70" offset="1"/>
  </radialGradient>
  <linearGradient id="linearGradient3215" y2="5.4676" gradientUnits="userSpaceOnUse" x2="63.397" gradientTransform="matrix(2.8014 0 0 2.8014 -142.25 43.835)" y1="-12.489" x1="63.397">
   <stop id="stop4875" style="stop-color:#fff" offset="0"/>
   <stop id="stop4877" style="stop-color:#fff;stop-opacity:0" offset="1"/>
  </linearGradient>
 </defs>
 <g id="layer1">
  <path id="path8836" style="opacity:.3;fill-rule:evenodd;fill:url(#radialGradient3223)" d="m63 53.5c0 5.799-13.879 10.5-31 10.5s-31-4.701-31-10.5 13.879-10.5 31-10.5 31 4.701 31 10.5z"/>
  <path id="path2555" style="stroke-linejoin:round;stroke:url(#linearGradient3220);stroke-linecap:round;fill:url(#radialGradient3218)" d="m32 8.5018c-14.069 0-25.498 11.429-25.498 25.498-0.0002 14.069 11.429 25.498 25.498 25.498s25.498-11.429 25.498-25.498-11.429-25.498-25.498-25.498z"/>
  <path id="path8655" style="opacity:.4;stroke:url(#linearGradient3215);fill:none" d="m56.5 33.999c0 13.532-10.97 24.501-24.5 24.501-13.531 0-24.5-10.97-24.5-24.501s10.969-24.499 24.5-24.499c13.53 0 24.5 10.968 24.5 24.499z"/>
  <path id="path3227" style="fill:#1f4b6b" d="m24 33.128c0.333 0.91 0.708 1.647 1.507 0.639 0.99-0.592 4.307-3.186 3.975-0.645-1.062 4.702-2.355 9.355-3.344 14.071-1.033 2.583 1.314 4.919 3.765 3.239 2.605-1.079 4.847-2.836 7.137-4.448-0.312-0.77-0.521-1.876-1.384-0.869-1.134 0.517-3.61 2.954-4.07 0.944 0.952-5.092 2.717-9.995 3.845-15.045 1.038-2.323-0.657-5.257-3.195-3.336-3.04 1.33-5.582 3.503-8.236 5.45zm11.282-17.124c-3.102-0.165-4.723 4.858-1.776 6.232 2.391 0.985 4.995-1.478 4.411-3.94-0.181-1.282-1.327-2.335-2.635-2.292z"/>
  <path id="path3536" style="fill:#fff" d="m24 34.128c0.333 0.91 0.708 1.647 1.507 0.639 0.99-0.592 4.307-3.186 3.975-0.645-1.062 4.702-2.355 9.355-3.344 14.071-1.033 2.583 1.314 4.919 3.765 3.239 2.605-1.079 4.847-2.836 7.137-4.448-0.312-0.77-0.521-1.876-1.384-0.869-1.134 0.517-3.61 2.954-4.07 0.944 0.952-5.092 2.717-9.995 3.845-15.045 1.038-2.323-0.657-5.257-3.195-3.336-3.04 1.33-5.582 3.503-8.236 5.45zm11.282-17.124c-3.102-0.165-4.723 4.858-1.776 6.232 2.391 0.985 4.995-1.478 4.411-3.94-0.181-1.282-1.327-2.335-2.635-2.292z"/>
 </g>
</svg>
